!!!!SEGMENT: pl-cz--iii-506--003_neumann-wawrzyniec--vesperae-c-beatus.krn
!!!cenid: 17xx:242
!!!COM: Neumann, Wawrzyniec
!!!COM-rismid: pe30107352
!!!CDT: ~1700-~1799
!!!CNT:
!!!OPR: Vesperae C
!!!OTL: Beatus
!!!OMV: 003
!!!PDT:
!!!AGN: Sacred
!!!SMS-siglum: PL-CZ
!!!SMS-shelfmark: III-506
!!!SMS-shelfwork: 001-003 M
!!!NIFC-rismid:
!!!URL-scan: http://repozytorium.nifc.pl/skany/pl-cz-nut--iii-506
!!!ONB-nifc: UWAGA: części Vesperae: Dixit, Confitebor, Beatus, Laudate pueri, Laudate Dominum, Magnificat
!!!key:
**kern	**fb	**kern	**text	**kern	**text	**kern	**text	**kern	**text	**kern	**dynam	**kern	**dynam	**kern	**kern
*part9	*	*part8	*part8	*part7	*part7	*part6	*part6	*part5	*part5	*part4	*	*part3	*	*part2	*part1
*staff9	*	*staff8	*staff8	*staff7	*staff7	*staff6	*staff6	*staff5	*staff5	*staff4	*	*staff3	*	*staff2	*staff1
*group4	*	*group3	*	*group3	*	*group3	*	*group3	*	*group2	*	*group2	*	*group1	*group1
*Iorgan	*	*Iempty	*	*Itenor	*	*Ialto	*	*Ivox	*	*Ivioln	*	*Ivioln	*	*Iempty	*Iempty
*I"Organo	*	*I"Baſso Conc.	*	*I"Tenore ad Lib.	*	*I"Alto. Conc.	*	*I"Canto Conc.	*	*I"Violino Secundo.	*	*I"Violino Primo.	*	*I"Clarino Secondo.	*I"Clarino Primo.
*I'Org	*	*I'B	*	*I'T	*	*I'A	*	*I'C	*	*I'Vln.	*	*I'Vln.	*	*I'Cl II	*I'Cl I I
*clefF4	*	*clefF4	*	*clefC4	*	*clefC3	*	*clefC1	*	*clefG2	*	*clefG2	*	*	*
*k[f#c#g#d#]	*	*k[f#c#g#d#]	*	*k[f#c#g#d#]	*	*k[f#c#g#d#]	*	*k[f#c#g#d#]	*	*k[f#c#g#d#]	*	*k[f#c#g#d#]	*	*	*
*E:	*	*E:	*	*E:	*	*E:	*	*E:	*	*E:	*	*E:	*	*	*
*M4/4	*	*M4/4	*	*M4/4	*	*M4/4	*	*M4/4	*	*M4/4	*	*M4/4	*	*	*
*met(c)	*	*met(c)	*	*met(c)	*	*met(c)	*	*met(c)	*	*met(c)	*	*met(c)	*	*	*
=1	=1	=1	=1	=1	=1	=1	=1	=1	=1	=1	=1	=1	=1	=1	=1
!	!	!	!	!	!	!	!	!	!	!	!	!LO:TX:a:t=problem:mixed beam	!	!LO:TX:a:t=Tacet	!LO:TX:a:t=Tacet
!	!	!	!	!	!	!LO:TX:a:t= Allo: mod:	!	!LO:TX:a:t=3	!	!	!LO:DY:a	!	!	!	!
!LO:TX:a:t=S&colon;	!	!	!	!LO:TX:a:t=6	!	!	!	!LO:TX:a:t=mod:	!	!	!	!LO:TX:a:B:t=Allegro moderato	!LO:DY:a	!	!
4E\	.	2r	.	00r	.	8r	.	0r	.	4g#/	p	8ee/L	p	1ryy	1ryy
!	!	!	!	!	!	!LO:TX:a:t=S&colon;	!	!	!	!	!	!	!	!	!
.	.	.	.	.	.	8e\	Be-	.	.	.	.	8e/J	.	.	.
4r	.	.	.	.	.	(16d#\LL	-a-	.	.	8r	.	16d#/LL	.	.	.
.	.	.	.	.	.	16e\JJ)	.	.	.	.	.	16e/	.	.	.
.	.	.	.	.	.	(16f#\LL	-tus	.	.	8A/	.	16f#/	.	.	.
.	.	.	.	.	.	16d#\JJ)	.	.	.	.	.	16d#/JJ	.	.	.
8r	.	8r	.	.	.	8e\	vir	.	.	8G#/L	.	4e/	.	.	.
!	!	!LO:TX:a:t=S&colon;	!	!	!	!	!	!	!	!	!	!	!	!	!
8E\L	.	8G#\	qui	.	.	8b\	qui	.	.	8g#/J	.	.	.	.	.
8G#\	.	8G#\	ti-	.	.	8b\	ti-	.	.	4r	.	4r	.	.	.
8E\J	.	8G#\	-met	.	.	8b\	-met	.	.	.	.	.	.	.	.
=2	=2	=2	=2	=2	=2	=2	=2	=2	=2	=2	=2	=2	=2	=2	=2
!	!	!	!	!	!	!	!	!	!	!LO:TX:a:t=5	!	!LO:TX:a:t=5	!	!	!
8BB/L	6 4	8.G#\	Do-	.	.	8.b\	Do-	.	.	00r	.	00r	.	1ryy	1ryy
16C#/L	6	.	.	.	.	.	.	.	.	.	.	.	.	.	.
16D#/JJ	.	16F#\	-mi-	.	.	16a\	-mi-	.	.	.	.	.	.	.	.
8E\L	.	4E\	-num	.	.	4g#\	-num	.	.	.	.	.	.	.	.
8G#\J	.	.	.	.	.	.	.	.	.	.	.	.	.	.	.
!LO:TX:a:t=problem:mixed beam	!	!	!	!	!	!	!	!	!	!	!	!	!	!	!
8B\L	.	16F#\L	in	.	.	16d#\L	in	.	.	.	.	.	.	.	.
.	.	16A\J	.	.	.	16f#\J	.	.	.	.	.	.	.	.	.
8BB/	6 4	8G#\	man-	.	.	8e\	man-	.	.	.	.	.	.	.	.
8BB/	7	16D#\L	-da-	.	.	16f#\L	-da-	.	.	.	.	.	.	.	.
.	.	16F#\J	.	.	.	16a\J	.	.	.	.	.	.	.	.	.
8BB/J	6 4	8E\	-tis	.	.	8g#\	-tis	.	.	.	.	.	.	.	.
=3	=3	=3	=3	=3	=3	=3	=3	=3	=3	=3	=3	=3	=3	=3	=3
8BB/L	5	16F#\L	e-	.	.	16a\L	e-	1r	.	.	.	.	.	1ryy	1ryy
.	.	16A\J	.	.	.	16cc#\J	.	.	.	.	.	.	.	.	.
8E/J	.	8G#\	-jus	.	.	8b\	-jus	.	.	.	.	.	.	.	.
8r	.	8r	.	.	.	[4b\	vo-	.	.	.	.	.	.	.	.
16G#\LL	6	16E\LL	vo-	.	.	.	.	.	.	.	.	.	.	.	.
16D#\JJ	.	16F#\JJ	.	.	.	.	.	.	.	.	.	.	.	.	.
!	!	!LO:TX:a:t=problem:custos g#	!	!	!	!LO:TX:a:t=problem:custos b	!	!	!	!	!	!	!	!	!
!	!	!LO:LB:g=original	!	!	!	!LO:LB:g=original	!	!	!	!	!	!	!	!	!
4E\	.	8G#\	.	.	.	8b\]	.	.	.	.	.	.	.	.	.
.	.	8G#\	-let	.	.	16a\LL	-let	.	.	.	.	.	.	.	.
.	.	.	.	.	.	16g#\JJ	.	.	.	.	.	.	.	.	.
8A\L	6	(8A\L	ni-	.	.	8f#\L	ni-	.	.	.	.	.	.	.	.
8A#X\J	5	8A#X\J)	.	.	.	8e\J	.	.	.	.	.	.	.	.	.
=4	=4	=4	=4	=4	=4	=4	=4	=4	=4	=4	=4	=4	=4	=4	=4
!	!	!	!	!	!	!	!	!LO:TX:a:t=S&colon;	!	!	!	!	!	!	!
4B\	.	4B\	-mis,	.	.	4d#\	-mis,	8b\	Po-	.	.	.	.	1ryy	1ryy
.	.	.	.	.	.	.	.	16b\	-tens	.	.	.	.	.	.
.	.	.	.	.	.	.	.	16b\	in	.	.	.	.	.	.
8r	.	4r	.	.	.	4r	.	8b\	ter-	.	.	.	.	.	.
16C#/LL	6	.	.	.	.	.	.	8a\	-ra	.	.	.	.	.	.
16D#/JJ	.	.	.	.	.	.	.	.	.	.	.	.	.	.	.
!LO:LB:g=original	!	!	!	!	!	!	!	!	!	!	!	!	!	!	!
4E\	9 4	4r	.	.	.	2r	.	8a\	e-	.	.	.	.	.	.
.	8 3	.	.	.	.	.	.	8g#\	-rit	.	.	.	.	.	.
8r	.	8G#\	Se-	.	.	.	.	8b\	se-	.	.	.	.	.	.
16.D#/LL	.	16F#\LL	-men	.	.	.	.	8a\	-men	.	.	.	.	.	.
.	.	16E\JJ	.	.	.	.	.	.	.	.	.	.	.	.	.
32C#/JJk	.	.	.	.	.	.	.	.	.	.	.	.	.	.	.
=5	=5	=5	=5	=5	=5	=5	=5	=5	=5	=5	=5	=5	=5	=5	=5
!	!	!	!	!	!	!LO:TX:a:t=3	!	!	!	!	!	!	!	!	!
8BB/L	5	8D#\	e-	0r	.	0r	.	8a\	e-	.	.	.	.	1ryy	1ryy
8E/J	.	8E\	-jus	.	.	.	.	8g#\	-jus,	.	.	.	.	.	.
!	!	!	!	!	!	!	!	!LO:TX:a:B:t=/	!	!	!	!	!	!	!
4r	.	8r	.	.	.	.	.	8.ee\	ge-	.	.	.	.	.	.
.	.	16E\	ge-	.	.	.	.	.	.	.	.	.	.	.	.
.	.	16F#\	-ne-	.	.	.	.	16ee\	-ne-	.	.	.	.	.	.
4.E\	6	8.G#\	-ra-	.	.	.	.	8ee\	-ra-	.	.	.	.	.	.
.	.	.	.	.	.	.	.	8dd#\	-ti-	.	.	.	.	.	.
.	.	16G#\	-ti-	.	.	.	.	.	.	.	.	.	.	.	.
.	.	8G#\	-o	.	.	.	.	8cc#\	-o	.	.	.	.	.	.
8E#X\	5	8G#\	Rec-	.	.	.	.	8b\	Rec-	.	.	.	.	.	.
!	!	!	!	!	!	!	!	!LO:LB:g=original	!	!	!	!	!	!	!
=6	=6	=6	=6	=6	=6	=6	=6	=6	=6	=6	=6	=6	=6	=6	=6
4F#\	#	16F#\L	-to-	.	.	.	.	8a#X\	-to-	1r	.	1r	.	1ryy	1ryy
.	.	16G#\J	.	.	.	.	.	.	.	.	.	.	.	.	.
.	.	8A#X\	-rum	.	.	.	.	8f#\	-rum	.	.	.	.	.	.
!	!	!	!	!	!	!	!	!LO:TX:a:B:t=/	!	!	!	!	!	!	!
8r	.	8r	.	.	.	.	.	4b\	Be-	.	.	.	.	.	.
8G#\	.	8B\	Be-	.	.	.	.	.	.	.	.	.	.	.	.
4E\	5	8.G#\	-ne-	.	.	.	.	16b\LL	-ne-	.	.	.	.	.	.
.	6	.	.	.	.	.	.	16g#\JJ	.	.	.	.	.	.	.
.	.	.	.	.	.	.	.	16ee\LL	-di-	.	.	.	.	.	.
.	.	16E\	-di-	.	.	.	.	16cc#\JJ	.	.	.	.	.	.	.
!	!	!LO:TX:a:t=t:	!	!	!	!	!	!LO:TX:a::t=t:	!	!	!	!	!	!	!
.	.	.	.	.	.	.	.	8qqb/	.	.	.	.	.	.	.
4F#\	4	4F#\	-ci-	.	.	.	.	4a#X\	.	.	.	.	.	.	.
.	#	.	.	.	.	.	.	.	.	.	.	.	.	.	.
!	!	!LO:TX:a:t=problem:custos BB	!	!	!	!	!	!	!	!	!	!	!	!	!
!	!	!LO:LB:g=original	!	!	!	!	!	!	!	!	!	!	!	!	!
=7	=7	=7	=7	=7	=7	=7	=7	=7	=7	=7	=7	=7	=7	=7	=7
!	!	!	!	!	!	!	!	!	!	!	!LO:DY:a	!	!LO:DY:b	!	!
4BB/	.	4BB/	-tur,	2r	.	1r	.	4b\	-tur.	16b\LL	f	16b\LL	f	1ryy	1ryy
.	.	.	.	.	.	.	.	.	.	16dd#\	.	16bb\	.	.	.
.	.	.	.	.	.	.	.	.	.	16ff#\	.	16aa#X\	.	.	.
.	.	.	.	.	.	.	.	.	.	16ee\JJ	.	16gg#\JJ	.	.	.
4r	.	4r	.	.	.	.	.	4r	.	16dd#\LL	.	16ff#\LL	.	.	.
.	.	.	.	.	.	.	.	.	.	16a#X\	.	16cc#\	.	.	.
.	.	.	.	.	.	.	.	.	.	16b\	.	16dd#\	.	.	.
.	.	.	.	.	.	.	.	.	.	16cc#\JJ	.	16ee\JJ	.	.	.
!LO:TX:a:t=T&colon;	!	!	!	!	!	!	!	!LO:TX:a:t=T&colon;	!	!	!	!	!	!	!
4BB/	.	2r	.	8d#\	glo-	.	.	8b\	Glo-	8b/L	.	8dd#\L	.	.	.
.	.	.	.	16d#\	-ri-	.	.	16b\	-ri-	8d#/	.	8b\J	.	.	.
.	.	.	.	16d#\	-a	.	.	16b\	-a,	.	.	.	.	.	.
8r	.	.	.	8A#X\	et	.	.	8cc#\	et	8e/	.	16a#X/LL	.	.	.
.	.	.	.	.	.	.	.	.	.	.	.	16b/	.	.	.
8F#\	#	.	.	8A#\	di-	.	.	8cc#\	di-	8e/J	.	16cc#/	.	.	.
.	.	.	.	.	.	.	.	.	.	.	.	16a#/JJ	.	.	.
=8	=8	=8	=8	=8	=8	=8	=8	=8	=8	=8	=8	=8	=8	=8	=8
!	!	!LO:TX:a:t=1	!	!	!	!	!	!	!	!LO:TX:a:t=problem:mixed beam	!	!	!	!	!
8D#/L	6	1r	.	16B\	-vi-	8r	.	16dd#\	-vi-	8d#/L	.	8b\L	.	1ryy	1ryy
.	.	.	.	16B\	-ti-	.	.	16dd#\	-ti-	.	.	.	.	.	.
!	!	!	!	!	!	!LO:TX:a:t=T&colon;	!	!	!	!	!	!	!	!	!
16BB/L	.	.	.	16d#\	-ae	8f#\	ex-	16ff#\	-ae	8d#/	.	8ff#\	.	.	.
!	!	!	!	!	!	!	!	!LO:TX:a:B:t=/	!	!	!	!	!	!	!
16C#/JJ	.	.	.	16d#\	in	.	.	16ff#\	in	.	.	.	.	.	.
8D#/L	.	.	.	8B\	Do-	16b\	-or-	8ff#\	Do-	8b\	.	8ff#\	.	.	.
.	.	.	.	.	.	16b\	-tum	.	.	.	.	.	.	.	.
8BB/J	.	.	.	8d#\	-mo	16b\	est	8ff#\	-mo-	8dd#\J	.	8ff#\J	.	.	.
.	.	.	.	.	.	16b\	in	.	.	.	.	.	.	.	.
4F#\	4#	.	.	8c#\	e-	16a#X\	Te-	8.ff#\	-e-	8.dd#\L	.	8.ff#\L	.	.	.
.	.	.	.	.	.	16a#\	-ne-	.	.	.	.	.	.	.	.
.	.	.	.	8c#\	-jus	8a#\	-bris	.	.	.	.	.	.	.	.
.	.	.	.	.	.	.	.	16ee\	-jus,	16cc#\K	.	16ee\Jk	.	.	.
!LO:TX:a:t=problem:mixed beam	!	!	!	!	!	!	!	!LO:TX:a:B:t=/	!	!	!	!	!	!	!
8B\L	.	.	.	8B\	et	8b\	lu-	8dd#\	et	8.b\	.	4dd#\	.	.	.
8BB/J	.	.	.	8B\	Jus-	8f#\	-men	8dd#\	jus-	.	.	.	.	.	.
.	.	.	.	.	.	.	.	.	.	16e#X\Jk	.	.	.	.	.
!	!	!	!	!	!	!	!	!LO:LB:g=original	!	!LO:LB:g=original	!	!LO:LB:g=original	!	!	!
=9	=9	=9	=9	=9	=9	=9	=9	=9	=9	=9	=9	=9	=9	=9	=9
4F#\	7 3#	8r	.	16c#\	-ti-	8a#X\	Rec-	16cc#\	-ti-	16f#/LL	.	(16a#X\LL	.	1ryy	1ryy
.	6 4	.	.	16e\	-ti-	.	.	16cc#\	-ti-	16a#X/J	.	16cc#\J)	.	.	.
.	.	8F#\	Ju-	8d#\	-a	8b\	-tis,	8b\	-a	8g#/J	.	8b\J	.	.	.
4F#\	5 3#	8F#\	-cun-	8A#X\	e-	8r	.	8cc#\	e-	(16a#\LL	.	(16cc#\LL	.	.	.
.	6 4	.	.	.	.	.	.	.	.	16cc#\J)	.	16ee\J)	.	.	.
.	.	8F#\	-dus	8B\	-jus	8b\	Mi-	8dd#\	-jus	8b\J	.	8dd#\J	.	.	.
!LO:LB:g=original	!	!	!	!	!	!	!	!	!	!	!	!	!	!	!
8F#\L	#	8F#\	ho-	8c#\	ma-	16a#\	-se-	8ee\	ma-	16cc#\LL	.	16ee\LL	.	.	.
.	.	.	.	.	.	16a#\	-ri-	.	.	16ee\J	.	16gg#\J	.	.	.
8B\J	.	16B\	-mo-	16d#\	-net	16b\	-cors	16dd#\	-net	8dd#\J	.	8ff#\J	.	.	.
.	.	16B\	-qui	16d#\	in	16b\	et	16dd#\	in	.	.	.	.	.	.
!	!	!	!	!LO:LB:g=original	!	!LO:LB:g=original	!	!	!	!	!	!	!	!	!
8r	.	8B\	mi-	16f#\	Sae-	8b\	Mi-	16dd#\	Sae-	4dd#\	.	4bb\	.	.	.
.	.	.	.	16f#\	-cu-	.	.	16dd#\	-cu-	.	.	.	.	.	.
8BB/	.	8B\	-se-	8f#\	-lum	8b\	-se-	8dd#\	-lum	.	.	.	.	.	.
=10	=10	=10	=10	=10	=10	=10	=10	=10	=10	=10	=10	=10	=10	=10	=10
8G#\L	.	8G#\	-re-	4.d#\	Sae-	8b\	-ra-	4.dd#\	Sae-	8dd#\L	.	16bb\LL	.	1ryy	1ryy
.	.	.	.	.	.	.	.	.	.	.	.	16aa#X\	.	.	.
8G#\	.	16G#\	-tur	.	.	16b\	-tor	.	.	16ee\L	.	16gg#\	.	.	.
.	.	16G#\	et	.	.	16b\	et	.	.	16dd#\JJ	.	16ff#\JJ	.	.	.
8G#\	.	8G#\	com-	.	.	4b\	Jus-	.	.	8cc#\L	.	16ee\LL	.	.	.
.	.	.	.	.	.	.	.	.	.	.	.	16dd#\	.	.	.
8E#X\J	6	8E#X\	-mo-	8c#\	-cu-	.	.	8cc#\	-cu-	8g#\J	.	16cc#\	.	.	.
.	.	.	.	.	.	.	.	.	.	.	.	16b\JJ	.	.	.
4F#\	#	8F#\	-dat,	4f#\	-li	4a#X\	-tus	4cc#\	-li,	4f#/	.	4a#X/	.	.	.
!	!	!LO:TX:a:t=S&colon;	!	!	!	!	!	!	!	!	!	!	!	!	!
.	.	8F#\	dis-	.	.	.	.	.	.	.	.	.	.	.	.
!LO:TX:a:t=T&colon;	!	!	!	!	!	!	!	!	!	!	!	!	!	!	!
8r	.	8F#\	-po-	4r	.	4r	.	4r	.	4r	.	4r	.	.	.
8D#/	.	16F#\	-net	.	.	.	.	.	.	.	.	.	.	.	.
!	!	!LO:TX:a:t=problem:custos E	!	!	!	!	!	!	!	!	!	!	!	!	!
.	.	16F#\	Ser-	.	.	.	.	.	.	.	.	.	.	.	.
!	!	!LO:LB:g=original	!	!	!	!	!	!	!	!	!	!	!	!	!
=11	=11	=11	=11	=11	=11	=11	=11	=11	=11	=11	=11	=11	=11	=11	=11
!	!	!	!	!LO:TX:a:t=3	!	!LO:TX:b:t=2	!	!	!	!	!	!	!	!	!
4C#/	#	16E#X\L	-mo-	0r	.	0r	.	1r	.	8r	.	8r	.	1ryy	1ryy
.	.	16G#\J	.	.	.	.	.	.	.	.	.	.	.	.	.
!	!	!	!	!	!	!	!	!	!	!	!LO:DY:a	!	!LO:DY:t=pia:	!	!
.	.	8B\	-nes	.	.	.	.	.	.	4b\	p	16ee#X\LL	p	.	.
.	.	.	.	.	.	.	.	.	.	.	.	16gg#\JJ	.	.	.
8E#X\L	.	8B\	Su-	.	.	.	.	.	.	.	.	(8gg#\L	.	.	.
8F#\J	#	8A#X\	-os	.	.	.	.	.	.	8a#X/	.	8ff#\J)	.	.	.
8r	.	16c#\L	in	.	.	.	.	.	.	8r	.	8r	.	.	.
.	.	16A#X\J	.	.	.	.	.	.	.	.	.	.	.	.	.
8C#/L	.	8E#\	Ju-	.	.	.	.	.	.	(4ee\	.	16aa#X\LL	.	.	.
.	.	.	.	.	.	.	.	.	.	.	.	16ccc#\JJ	.	.	.
8AA#X/	.	8.E#\	-di-	.	.	.	.	.	.	.	.	(8ccc#\L	.	.	.
8BB/J	.	.	.	.	.	.	.	.	.	8dd#\)	.	8bb\J)	.	.	.
.	.	16D#\	-ci-	.	.	.	.	.	.	.	.	.	.	.	.
=12	=12	=12	=12	=12	=12	=12	=12	=12	=12	=12	=12	=12	=12	=12	=12
!LO:TX:a:t=problem:mixed beam	!	!	!	!	!	!	!	!LO:TX:a:t=S&colon;	!	!LO:TX:a:t=problem:mixed beam	!	!	!	!	!
.	.	8qqD#/	.	.	.	.	.	.	.	.	.	8qqbb/	.	.	.
8F#\L	4	4C#/	.	.	.	.	.	4r	.	8f#/L	.	4aa#X\	.	1ryy	1ryy
8FF#/J	#	.	.	.	.	.	.	.	.	8cc#\J	.	.	.	.	.
4r	.	4r	.	.	.	.	.	8ee\	qui-	8r	.	8ee\L	.	.	.
.	.	.	.	.	.	.	.	8ee\	-a	8g#/	.	8ee\J	.	.	.
!	!	!	!	!	!	!	!	!	!	!	!	!LO:LB:g=original	!	!	!
4C#/	.	2r	.	.	.	.	.	8ee\	in	16e/LL	.	16gg#\LL	.	.	.
.	.	.	.	.	.	.	.	.	.	16g#/	.	16ee\	.	.	.
.	.	.	.	.	.	.	.	16dd#\LL	ae-	16f#/	.	16dd#\	.	.	.
.	.	.	.	.	.	.	.	16cc#\JJ	.	16e/JJ	.	16cc#\JJ	.	.	.
4F#\	4#	.	.	.	.	.	.	8b\	-ter-	8d#/L	.	8b/L	.	.	.
.	.	.	.	.	.	.	.	8a#X\	-num	8c#/J	.	8a#X/J	.	.	.
!	!	!	!	!	!	!	!	!LO:LB:g=original	!	!	!	!	!	!	!
=13	=13	=13	=13	=13	=13	=13	=13	=13	=13	=13	=13	=13	=13	=13	=13
!	!	!	!	!	!	!LO:TX:a:t=S&colon;	!	!	!	!	!	!	!	!	!
4BB/	.	1r	.	1r	.	4d#\	non	4b\	non	16r	.	16r	.	1ryy	1ryy
!	!	!	!	!	!	!	!	!	!	!	!LO:DY:a	!	!	!	!
.	.	.	.	.	.	.	.	.	.	16d#'/LL	f	16b'\LL	.	.	.
.	.	.	.	.	.	.	.	.	.	16d#'/	.	16b'\	.	.	.
.	.	.	.	.	.	.	.	.	.	16f#'/JJ	.	16dd#'\JJ	.	.	.
!	!	!	!	!	!	!	!	!	!	!LO:TX:a:t=problem:triola pod klamrą łukową	!	!LO:TX:a:t=problem:triola pod klamrą łukową	!	!	!
8r	.	.	.	.	.	8r	.	8r	.	24dd#\LL	.	24ff#\LL	.	.	.
.	.	.	.	.	.	.	.	.	.	24cc#\	.	24ee\	.	.	.
.	.	.	.	.	.	.	.	.	.	24b\J	.	24dd#\J	.	.	.
8BB/	6 4	.	.	.	.	8g#\	{non}	8b\	{non}	8b\J	.	8dd#\J	.	.	.
!	!	!	!	!	!	!	!	!	!	!LO:LB:g=original	!	!	!	!	!
4D#\	5n	.	.	.	.	4f#\	{non}	4an\	{non}	16r	.	16r	.	.	.
.	.	.	.	.	.	.	.	.	.	16f#'/LL	.	16dd#'\LL	.	.	.
.	.	.	.	.	.	.	.	.	.	16f#'/	.	16dd#'\	.	.	.
.	.	.	.	.	.	.	.	.	.	16dd#'/JJ	.	16ff#'\JJ	.	.	.
!	!	!	!	!	!	!	!	!	!	!LO:TX:a:t=problem:triola pod klamrą łukową	!	!LO:TX:a:t=problem:triola pod klamrą łukową	!	!	!
8r	.	.	.	.	.	8r	.	8r	.	24ff#\LL	.	24aan\LL	.	.	.
.	.	.	.	.	.	.	.	.	.	24ee\	.	24gg#\	.	.	.
.	.	.	.	.	.	.	.	.	.	24dd#\J	.	24ff#\J	.	.	.
8D#\	.	.	.	.	.	8f#\	non	8a\	non	8dd#\J	.	8ff#\J	.	.	.
!LO:LB:g=original	!	!	!	!	!	!	!	!	!	!	!	!	!	!	!
=14	=14	=14	=14	=14	=14	=14	=14	=14	=14	=14	=14	=14	=14	=14	=14
4E\	.	2r	.	2r	.	8e\	com-	8g#\	com-	2r	.	2r	.	1ryy	1ryy
.	.	.	.	.	.	8f#\	-mo-	8a\	-mo-	.	.	.	.	.	.
4E\	5	.	.	.	.	8g#\	-ve-	8b\	-ve-	.	.	.	.	.	.
.	6 4	.	.	.	.	8a\	-bi-	8cc#\	-bi-	.	.	.	.	.	.
8E\L	5	8r	.	8r	.	8g#\	-tur	4b\	-tur	8r	.	8r	.	.	.
!LO:TX:a:t=T&colon;	!	!LO:TX:a:t=T&colon;	!	!	!	!	!	!	!	!	!	!	!	!	!
8E\	.	16B\	in	16e\	in	16g#\	in	.	.	4b\	.	8ee\	f	.	.
.	.	16B\	me-	16e\	me-	16g#\	me-	.	.	.	.	.	.	.	.
8E\	.	16B\	-mo-	16e\	-mo-	16g#\	-mo-	4r	.	.	.	16gg#\LL	.	.	.
.	.	16B\	-ri-	16e\	-ri-	16g#\	-ri-	.	.	.	.	16ee\J	.	.	.
8E\J	.	16B\	-a	16e\	-a	16g#\	-a	.	.	8g#/	.	8b\J	.	.	.
!	!	!LO:TX:a:t=problem:custos E	!	!	!	!	!	!	!	!	!	!	!	!	!
.	.	16B\	ae-	16e\	ae-	16g#\	ae-	.	.	.	.	.	.	.	.
!	!	!	!	!	!	!LO:LB:g=original	!	!	!	!	!	!	!	!	!
=15	=15	=15	=15	=15	=15	=15	=15	=15	=15	=15	=15	=15	=15	=15	=15
8E\L	2_	8E\	-ter-	8c#\	-ter-	8f#\	-ter-	2r	.	8f#/	.	(16a/LL	.	1ryy	1ryy
.	.	.	.	.	.	.	.	.	.	.	.	16g#/	.	.	.
8E\	.	8E\	-na	8c#\	-na	8f#\	-na	.	.	4ff#\	.	16a/)	.	.	.
.	.	.	.	.	.	.	.	.	.	.	.	16a'/JJ	.	.	.
8E\	.	8E\	e-	8c#\	e-	8f#\	e-	.	.	.	.	(16a/LL	.	.	.
.	.	.	.	.	.	.	.	.	.	.	.	16g#/	.	.	.
8E\J	.	8E\	-rit	8c#\	-rit	8f#\	-rit	.	.	8f#/	.	16a/)	.	.	.
.	.	.	.	.	.	.	.	.	.	.	.	16a'/JJ	.	.	.
8D#\L	x	8D#/	Jus-	8B\	Jus-	8f#\	Jus-	4r	.	8.a/L	.	8.ff#\L	.	.	.
8D#\J	.	8D#/	-tus	8B\	-tus	8f#\	-tus	.	.	.	.	.	.	.	.
.	.	.	.	.	.	.	.	.	.	16cc#/Jk	.	16ee\Jk	.	.	.
!	!	!	!	!	!	!	!	!LO:TX:a:t=T&colon;	!	!	!	!	!	!	!
8r	.	16D#/	ab	16f#\	ab	16a\	ab	8r	.	16b/LL	.	16dd#\LL	.	.	.
.	.	16D#/	au-	16f#\	au-	16a\	au-	.	.	16a/	.	16cc#\	.	.	.
8D#\	6 5	16D#/	-di-	16f#\	-di-	16a\	-di-	8ff#\	Pa-	16g#/	.	16b\	.	.	.
.	.	16D#/	-ti-	16B\	-ti-	16a\	-ti-	.	.	16f#/JJ	.	16a\JJ	.	.	.
!	!	!	!	!	!	!	!	!	!	!	!	!LO:LB:g=original	!	!	!
=16	=16	=16	=16	=16	=16	=16	=16	=16	=16	=16	=16	=16	=16	=16	=16
8E\L	.	8E\	-o-	8B\	-o-	8g#\	-o-	8ee\	-ra-	16g#/LL	.	16g#/LL	.	1ryy	1ryy
.	.	.	.	.	.	.	.	.	.	16f#/J	.	16f#/J	.	.	.
8E\J	.	8E\	-ne	8B\	-ne	8g#\	-ne	16ee\	-tum	8e/J	.	8e/J	.	.	.
.	.	.	.	.	.	.	.	16ee\	cor	.	.	.	.	.	.
!	!	!	!	!LO:LB:g=original	!	!	!	!	!	!	!	!	!	!	!
8r	.	8E\	ma-	8e\	ma-	16g#\	ma-	8cc#\	e-	8gg#\L	.	8gg#'\L	.	.	.
.	.	.	.	.	.	16g#\	-la	.	.	.	.	.	.	.	.
16E\LL	6	16E\L	-la	8e\	-la	16g#\	non	16cc#\	-jus	8cc#\J	.	8cc#'\J	.	.	.
!	!	!	!	!	!	!	!	!LO:TX:a:B:t=/	!	!	!	!	!	!	!
16F#\JJ	.	16F#\J	.	.	.	16a\	ti-	16cc#\	Spe-	.	.	.	.	.	.
4G#\	4#	8G#\	non	8e\	non	8a\	-me-	8cc#\	-ra-	(8cc#\L	.	(8cc#\L	.	.	.
.	.	8G#\	ti-	8d#\	ti-	4g#\	.	16b#X\	-re	8b#X\J)	.	8b#X\)	.	.	.
!	!	!	!	!	!	!	!	!LO:LB:g=original	!	!	!	!	!	!	!
.	.	.	.	.	.	.	.	16b#\	in	.	.	.	.	.	.
!	!	!	!	!	!	!	!	!	!	!	!	!LO:TX:a:t=problem:mixed beam	!	!	!
4BB#X/	6	4BB#X/	-me-	4d#\	-me-	.	.	8.dd#\	Do-	8dd#/L	.	8dd#\	.	.	.
.	5	.	.	.	.	[8f#\	.	.	.	8f#/J	.	8f#/J	.	.	.
.	.	.	.	.	.	.	.	16dd#\	-mi-	.	.	.	.	.	.
=17	=17	=17	=17	=17	=17	=17	=17	=17	=17	=17	=17	=17	=17	=17	=17
!	!	!	!	!	!	!	!	!	!	!	!	!LO:TX:a:t=problem:mixed beam	!	!	!
4C#/	9 4	4C#/	-bit,	4G#/	-bit	8f#\]	.	8dd#\	-no,	4e/	.	16e/LL	.	1ryy	1ryy
.	8 3	.	.	.	.	.	.	.	.	.	.	16gg#\	.	.	.
!	!	!	!	!	!	!	!	!LO:TX:a:B:t=/	!	!	!	!	!	!	!
.	.	.	.	.	.	8e\	-bit.	16cc#\	con-	.	.	16ee\	.	.	.
.	.	.	.	.	.	.	.	16cc#\	-fir-	.	.	16cc#\JJ	.	.	.
16r	.	4r	.	4r	.	4r	.	8cc#\	-ma-	16r	.	4aa\	.	.	.
16F#\LL	.	.	.	.	.	.	.	.	.	16a/LL	.	.	.	.	.
16D#\	.	.	.	.	.	.	.	8ff#\	-tum	16f#/	.	.	.	.	.
16C#\JJ	.	.	.	.	.	.	.	.	.	16e/JJ	.	.	.	.	.
!	!	!	!	!	!	!	!	!LO:TX:a:B:t=/	!	!LO:LB:g=original	!	!	!	!	!
8BB#X\L	6	2r	.	2r	.	2r	.	8ff#\	est	8d#/L	.	16r	.	.	.
.	.	.	.	.	.	.	.	.	.	.	.	16gg#'\LL	.	.	.
8C#\	.	.	.	.	.	.	.	8ee\	cor	8g#/J	.	16ee'\	.	.	.
.	.	.	.	.	.	.	.	.	.	.	.	16cc#'\JJ	.	.	.
8G#\	4	.	.	.	.	.	.	8ee\L	e-	16g#/LL	.	(16ee\LL	.	.	.
.	.	.	.	.	.	.	.	.	.	16f#/	.	16dd#\)	.	.	.
8G#\J	#	.	.	.	.	.	.	8dd#\J	.	16e/	.	(16cc#\	.	.	.
.	.	.	.	.	.	.	.	.	.	16f#/JJ	.	16b#X\JJ)	.	.	.
=18	=18	=18	=18	=18	=18	=18	=18	=18	=18	=18	=18	=18	=18	=18	=18
!	!	!LO:TX:a:t=1	!	!LO:TX:a:t=3	!	!	!	!	!	!	!	!LO:TX:a:t=problem:mixed beam	!	!	!
4C#/	.	1r	.	0r	.	8r	.	8cc#\L	-jus	4e/	.	8cc#\L	.	1ryy	1ryy
!	!	!	!	!	!	!	!	!LO:TX:a:B:t=/	!	!	!	!	!	!	!
!	!	!	!	!	!	!LO:TX:a:t=S&colon;	!	!LO:TX:a:t=S&colon;	!	!	!	!	!LO:DY:a	!	!
.	.	.	.	.	.	8e\	non	8g#\	non	.	.	8c#/J	p	.	.
4r	.	.	.	.	.	16e\LL	com-	8cc#\	com-	8r	.	4.cc#\	.	.	.
.	.	.	.	.	.	16f#\JJ	.	.	.	.	.	.	.	.	.
!	!	!	!	!	!	!	!	!	!	!	!LO:DY:a	!	!	!	!
.	.	.	.	.	.	16g#\LL	-mo-	8cc#\	-mo-	16e/LL	p	.	.	.	.
.	.	.	.	.	.	16a\JJ	.	.	.	16f#/JJ	.	.	.	.	.
!	!	!	!	!	!	!LO:TX:a:t=problem:custos a	!	!	!	!	!	!	!	!	!
!	!	!	!	!	!	!LO:LB:g=original	!	!	!	!	!	!	!	!	!
2r	.	.	.	.	.	16a\	-ve-	16cc#\	-ve-	8g#/L	.	.	.	.	.
.	.	.	.	.	.	16g#\	-bi-	16b#X\	-bi-	.	.	.	.	.	.
.	.	.	.	.	.	8g#\	-tur	8b#\	-tur	8G#/J	.	8b#X\	.	.	.
.	.	.	.	.	.	8f#\	Do-	8dd#\	do-	8r	.	[4dd#\	.	.	.
.	.	.	.	.	.	16f#\	-nec	16dd#\	-nec	8B#X/	.	.	.	.	.
!	!	!	!	!	!	!	!	!LO:TX:a:t=problem:custos f#	!	!	!	!	!	!	!
.	.	.	.	.	.	16f#\	de-	16dd#\	de-	.	.	.	.	.	.
!LO:LB:g=original	!	!	!	!	!	!	!	!LO:LB:g=original	!	!	!	!	!	!	!
=19	=19	=19	=19	=19	=19	=19	=19	=19	=19	=19	=19	=19	=19	=19	=19
!	!	!	!	!	!	!	!	!	!	!	!	!LO:TX:a:t=problem:brak laseczki przy nucie	!	!	!
2r	.	2r	.	.	.	16f#\	-spi-	16dd#\	-spi-	4c#/	.	8dd#\]	.	1ryy	1ryy
.	.	.	.	.	.	16e\	-ci-	16cc#\	-ci-	.	.	.	.	.	.
.	.	.	.	.	.	8e\	-at	8cc#\	-at	.	.	8cc#\	.	.	.
.	.	.	.	.	.	16c#\	i-	16ee\	i-	8A/L	.	8.ee\L	.	.	.
.	.	.	.	.	.	16c#\	-ni-	16ee\	-ni-	.	.	.	.	.	.
.	.	.	.	.	.	16a\	-mi-	16dd#\	-mi-	8f#/J	.	.	.	.	.
.	.	.	.	.	.	16a\	-cos	16cc#\	-cos	.	.	32dd#\LL	.	.	.
.	.	.	.	.	.	.	.	.	.	.	.	32cc#\JJJ	.	.	.
!	!	!	!	!	!	!	!	!	!	!	!	!LO:TX:a:t=t:	!	!	!
8r	.	8r	.	.	.	16a\L	Su-	8cc#\	Su-	4g#/	.	8cc#\L	.	.	.
.	.	.	.	.	.	16g#\J	.	.	.	.	.	.	.	.	.
!LO:TX:a:t=S&colon;	!	!LO:TX:a:t=S&colon;	!	!	!	!	!	!	!	!	!	!	!	!	!
4G#\	#:	8G#\	Dis-	.	.	8g#\	-os.	8b#X\	-os	.	.	8b#X\J	.	.	.
.	.	8G#\	-per-	.	.	4r	.	4r	.	16b#X\LL	.	4r	.	.	.
.	.	.	.	.	.	.	.	.	.	16gg#\	.	.	.	.	.
8F#\	.	8G#\	-sit	.	.	.	.	.	.	16b#\	.	.	.	.	.
.	.	.	.	.	.	.	.	.	.	16dd#\JJ	.	.	.	.	.
!	!	!LO:LB:g=original	!	!	!	!	!	!	!	!	!	!LO:LB:g=original	!	!	!
=20	=20	=20	=20	=20	=20	=20	=20	=20	=20	=20	=20	=20	=20	=20	=20
*	*	*	*	*	*	*	*	*	*	*	*	*2\right	*	*	*
!LO:TX:a:t=problem:mixed beam	!	!	!	!	!	!	!	!	!	!	!	!	!	!	!
8E\L	6	8c#\	de-	1r	.	1r	.	1r	.	(4cc#\	.	2gg#\	.	1ryy	1ryy
8G#\	.	16B\	-dit	.	.	.	.	.	.	.	.	.	.	.	.
.	.	16A\	Pau-	.	.	.	.	.	.	.	.	.	.	.	.
8BB#X/	6	16G#\	-pe-	.	.	.	.	.	.	8dd#\L)	.	.	.	.	.
.	.	16F#\	-ri-	.	.	.	.	.	.	.	.	.	.	.	.
8C#/J	.	16E\	-bus	.	.	.	.	.	.	8ee\J	.	.	.	.	.
.	.	16C#/	Jus-	.	.	.	.	.	.	.	.	.	.	.	.
8r	.	8A\	-ti-	.	.	.	.	.	.	8cc#\L	.	8aa\L	.	.	.
8F#\L	4: 3:	16A\	-ti-	.	.	.	.	.	.	16a\L	.	16cc#\L	.	.	.
.	.	16A\	-a	.	.	.	.	.	.	16cc#\JJ	.	16a\JJ	.	.	.
8E\	.	8A\	e-	.	.	.	.	.	.	16a\LL	.	16cc#\LL	.	.	.
.	.	.	.	.	.	.	.	.	.	16cc#\	.	16a\	.	.	.
8D#\J	.	8A\	-jus,	.	.	.	.	.	.	16ff#\	.	16aa\	.	.	.
.	.	.	.	.	.	.	.	.	.	16a\JJ	.	16cc#\JJ	.	.	.
=21	=21	=21	=21	=21	=21	=21	=21	=21	=21	=21	=21	=21	=21	=21	=21
4E\	5	16G#\LL	ma-	2r	.	2r	.	2r	.	8g#/L	.	8b\L	.	1ryy	1ryy
.	.	16A\JJ	.	.	.	.	.	.	.	.	.	.	.	.	.
.	.	16B\	-net	.	.	.	.	.	.	16B/L	.	16g#\L	.	.	.
.	.	16c#\	in	.	.	.	.	.	.	16c#/JJ	.	16a\JJ	.	.	.
8E\L	7n	16dn\L	Sae-	.	.	.	.	.	.	16dn/LL	.	16b\LL	.	.	.
.	.	16B\J	.	.	.	.	.	.	.	16e/J	.	16ddn\	.	.	.
8A\J	.	16c#\	-cu-	.	.	.	.	.	.	8e/J	.	16a\	.	.	.
.	.	16A\	-lum	.	.	.	.	.	.	.	.	16cc#\JJ	.	.	.
!	!	!	!	!	!	!	!	!	!	!LO:LB:g=original	!	!	!	!	!
8Dn\L	6	16B\LL	Sae-	4r	.	4r	.	4r	.	8r	.	16ee\LL	.	.	.
.	.	16A\JJ	.	.	.	.	.	.	.	.	.	16dd\	.	.	.
8E\J	.	16A\LL	-cu-	.	.	.	.	.	.	8e/L	.	16cc#\	.	.	.
.	.	16G#\JJ	.	.	.	.	.	.	.	.	.	16b\JJ	.	.	.
!LO:TX:a:t=problem:mixed beam	!	!	!	!	!	!	!	!LO:TX:a:t=T&colon;	!	!	!	!LO:TX:a:t=problem:mixed beam	!	!	!
8AA/L	.	4A\	-li.	8r	.	8r	.	8r	.	8e/	.	8cc#\L	.	.	.
!LO:TX:a:t=T&colon;	!	!	!	!	!	!LO:TX:a:t=T&colon;	!	!	!	!	!LO:DY:a	!	!LO:DY:a	!	!
8E\J	.	.	.	16e\	cor-	16a\	cor-	16cc#\	cor-	8e/J	f	8G#/J	f	.	.
.	.	.	.	16e\	-nu	16g#\	-nu	16b\	-nu	.	.	.	.	.	.
=22	=22	=22	=22	=22	=22	=22	=22	=22	=22	=22	=22	=22	=22	=22	=22
8A\L	.	2r	.	8e\	e-	8a\	e-	8cc#\	e-	8c#/L	.	8A/L	.	1ryy	1ryy
16C#\L	6	.	.	8c#\	-jus	8e\	-jus	8a\	-jus	8c#/J	.	8a/J	.	.	.
16Dn\JJ	.	.	.	.	.	.	.	.	.	.	.	.	.	.	.
4E\	.	.	.	16B\	ex-	16e\	Et	16g#\	Et	16B/LL	.	16g#/LL	.	.	.
.	.	.	.	16c#\	-al-	16e\	al-	16a\	al-	16c#/	.	16a/	.	.	.
.	.	.	.	16dn\	-ta-	16e\	-ta-	16b\	-ta-	16dn/	.	16b/	.	.	.
.	.	.	.	16B\	-bi-	16e\	-bi-	16g#\	-bi-	16B/JJ	.	16g#/JJ	.	.	.
!	!	!	!	!	!	!LO:LB:g=originalLO:TX:a:t=problem:custos e	!	!	!	!	!	!	!	!	!
!	!	!LO:LB:g=original	!	!	!	!	!	!	!	!LO:TX:a:t=problem:mixed beam	!	!	!	!	!
8r	.	8r	.	8c#\	-tur	8e\	-tur	8a\	-tur	8c#/L	.	8a\L	.	.	.
!	!	!	!	!	!	!	!	!LO:TX:a:B:t=/	!	!	!	!	!	!	!
8A\L	.	8A\	in	8c#\	in	8e\	in	8ee\	in	8cc#\	.	8ee\	.	.	.
8G#\	6	8.G#\	glo-	8.c#\	glo-	8.e\	glo-	8.ee\	glo-	8cc#\	.	8ee\	.	.	.
8E\J	.	.	.	.	.	.	.	.	.	8cc#\J	.	8ee\J	.	.	.
.	.	16E\	-ri-	16B\	-ri-	16e\	-ri-	16ddn\Jk	-ri-	.	.	.	.	.	.
=23	=23	=23	=23	=23	=23	=23	=23	=23	=23	=23	=23	=23	=23	=23	=23
4AA/	.	8AA/	-a,	4A\	-a.	4e\	-a	4cc#\	-a	8.cc#\L	.	8.ee\L	.	1ryy	1ryy
!	!	!LO:TX:a:t=S&colon;	!	!	!	!	!	!	!	!	!	!	!	!	!
.	.	8E\	Pec-	.	.	.	.	.	.	.	.	.	.	.	.
!	!	!	!	!	!	!	!	!	!	!	!LO:DY:a	!	!LO:DY:a	!	!
.	.	.	.	.	.	.	.	.	.	16b\Jk	p	16ddn\Jk	p	.	.
8r	.	8A\	-ca-	4r	.	4r	.	4r	.	4a/	.	4cc#\	.	.	.
!LO:TX:a:t=S&colon;	!	!	!	!	!	!	!	!	!	!	!	!	!	!	!
8F#\	.	16A\	-tor	.	.	.	.	.	.	.	.	.	.	.	.
.	.	16A\	vi-	.	.	.	.	.	.	.	.	.	.	.	.
!LO:LB:g=original	!	!	!	!	!	!	!	!LO:TX:a:t=problem:custos b	!	!	!	!	!	!	!
4E\	4	16G#\LL	-de-	2r	.	2r	.	2r	.	8dn/L	.	(16g#\LL	.	.	.
.	3	16B\JJ	.	.	.	.	.	.	.	.	.	16b\J)	.	.	.
.	.	16A\	-bit	.	.	.	.	.	.	8c#/J	.	8a\J	.	.	.
.	.	16A\	et	.	.	.	.	.	.	.	.	.	.	.	.
8r	.	16G#\L	i-	.	.	.	.	.	.	8r	.	(16b\LL	.	.	.
.	.	16B\J	.	.	.	.	.	.	.	.	.	16ddn\J)	.	.	.
8A\	.	8A\	-ras-	.	.	.	.	.	.	8a/	.	8cc#\J	.	.	.
!	!	!	!	!	!	!	!	!LO:LB:g=original	!	!	!	!LO:LB:g=original	!	!	!
=24	=24	=24	=24	=24	=24	=24	=24	=24	=24	=24	=24	=24	=24	=24	=24
!	!	!	!	!	!	!	!	!LO:TX:a:t=1	!	!	!	!	!	!	!
4A\	6 4	16B\L	-ce-	1r	.	1r	.	1r	.	(16b\LL	.	(16ddn\LL	.	1ryy	1ryy
.	5	16dn\J	.	.	.	.	.	.	.	16ddn\J	.	16ff#\J)	.	.	.
.	.	8c#\	-tur	.	.	.	.	.	.	8cc#\J)	.	8ee\J	.	.	.
*2\right	*	*	*	*	*	*	*	*	*	*2\right	*	*	*	*	*
2.E#X\	7n	16dn\	den-	.	.	.	.	.	.	2.b\	.	2.gg#\	.	.	.
.	.	16d\	-ti-	.	.	.	.	.	.	.	.	.	.	.	.
.	.	8d\	-bus	.	.	.	.	.	.	.	.	.	.	.	.
.	.	8B\	Su-	.	.	.	.	.	.	.	.	.	.	.	.
.	.	8B\	-is	.	.	.	.	.	.	.	.	.	.	.	.
.	.	16G#\	fre-	.	.	.	.	.	.	.	.	.	.	.	.
.	.	16F#\	-met	.	.	.	.	.	.	.	.	.	.	.	.
.	.	16E#X\	et	.	.	.	.	.	.	.	.	.	.	.	.
.	.	16C#/	ta-	.	.	.	.	.	.	.	.	.	.	.	.
!	!	!LO:LB:g=original	!	!LO:LB:g=original	!	!	!	!	!	!	!	!	!	!	!
=25	=25	=25	=25	=25	=25	=25	=25	=25	=25	=25	=25	=25	=25	=25	=25
4F#\	.	8A\	-bes-	4r	.	4r	.	4r	.	4a/	.	4ff#\	.	1ryy	1ryy
.	.	8F#\	-cet,	.	.	.	.	.	.	.	.	.	.	.	.
!LO:TX:b:t=T&colon;	!	!	!	!	!	!	!	!	!	!	!	!	!LO:DY:a	!	!
8F#\L	4| 3_	8F#\	De-	8d#\	de-	8f#\	De-	8b#X\	de-	8a/L	f	4b#X\	f	.	.
8F#\J	.	8F#\	-si-	8d#\	-si-	8a\	-si-	8b#\	-si-	8a/J	.	.	.	.	.
8F#\L	4#_ _	16F#\	-de-	8B#\	-de-	16a\	-de-	8dd#\	-de-	8a/L	.	4dd#X\	.	.	.
.	.	16F#\	-ri-	.	.	16a\	-ri-	.	.	.	.	.	.	.	.
8F#\	.	8F#\	-um	16B#\	-ri-	8a\	-um	16dd#\	-ri-	8a/	.	.	.	.	.
.	.	.	.	16B#\	-um	.	.	16dd#\	-um	.	.	.	.	.	.
8F#\	.	8F#\	Pec-	8B#\	Pec-	8a\	Pec-	8ff#\	Pec-	8a/	.	8ff#\L	.	.	.
8F#\J	.	8F#\	-ca-	8B#\	-ca-	8a\	-ca-	8dd#\	-ca-	8a/J	.	8aa\J	.	.	.
!	!	!	!	!	!	!	!	!	!	!LO:LB:g=original	!	!	!	!	!
=26	=26	=26	=26	=26	=26	=26	=26	=26	=26	=26	=26	=26	=26	=26	=26
8F#\L	.	8F#\	-to-	8d#\	-to-	8g#\	-to-	8b#X\	-to-	8g#/L	.	8b#X\L	.	1ryy	1ryy
8E\	6	16E\	-rum	16c#\	-rum	16g#\	-rum	16cc#\	-rum	8g#/	.	8cc#\J	.	.	.
!	!	!	!	!	!	!	!	!LO:TX:b:B:t=/	!	!	!	!	!	!	!
.	.	16E\	pe-	16c#\	Pe-	16g#\	pe-	16cc#\	Pe-	.	.	.	.	.	.
8D#\	.	8D#/L	-ri-	8d#\	-ri-	4g#\	-ri-	[4cc#\	-ri-	8g#/	.	16b#\LL	.	.	.
.	.	.	.	.	.	.	.	.	.	.	.	16cc#\	.	.	.
8C#\J	.	8C#/J	.	8e\	.	.	.	.	.	8g#/J	.	16ee\	.	.	.
.	.	.	.	.	.	.	.	.	.	.	.	16cc#\JJ	.	.	.
4G#\	4#	8G#\	.	4d#\	-bit	4g#\	-bit,	8cc#\]	.	8g#/L	.	8cc#\L	.	.	.
.	.	8G#\	-bit,	.	.	.	.	8b#\	-bit,	16.d#/L	.	16.b#\L	.	.	.
.	.	.	.	.	.	.	.	.	.	32e/JJk	.	32cc#\JJk	.	.	.
4r	.	4r	.	4r	.	4r	.	4r	.	8e/L	.	8cc#\L	.	.	.
.	.	.	.	.	.	.	.	.	.	16.d#/L	.	16.bn\L	.	.	.
.	.	.	.	.	.	.	.	.	.	32f#/JJk	.	32a\JJk	.	.	.
=27	=27	=27	=27	=27	=27	=27	=27	=27	=27	=27	=27	=27	=27	=27	=27
!	!	!	!	!	!	!	!	!	!	!	!	!LO:TX:a:t=problem:mixed beam	!	!	!
!LO:TX:a:t=S&colon;	!	!	!	!LO:TX:a:t=1	!	!	!	!LO:TX:a:t=S&colon;	!	!	!	!	!LO:DY:a	!	!
4E\	.	2r	.	1r	.	2r	.	8ee\	Glo-	16e/LL	p	16g#/LL	p	1ryy	1ryy
.	.	.	.	.	.	.	.	.	.	16cc#/	.	16ee\	.	.	.
.	.	.	.	.	.	.	.	16dd#\	-ri-	16b/	.	16dd#\	.	.	.
.	.	.	.	.	.	.	.	16cc#\	-a	16a/JJ	.	16cc#\JJ	.	.	.
8r	.	.	.	.	.	.	.	8bn\	Pa-	8g#/L	.	8b\L	.	.	.
8E\	.	.	.	.	.	.	.	16a\	-tri	8g#/J	.	8b\J	.	.	.
.	.	.	.	.	.	.	.	16g#\	et	.	.	.	.	.	.
.	.	.	.	.	.	.	.	8qqa/	.	.	.	.	.	.	.
8E\L	6 4	4r	.	.	.	4r	.	8.cc#\	fi-	8a\L	.	8cc#\L	.	.	.
8E\	.	.	.	.	.	.	.	.	.	8cc#\	.	8aa\	.	.	.
.	.	.	.	.	.	.	.	16cc#\	-li-	.	.	.	.	.	.
!	!	!LO:TX:a:t=S&colon;	!	!	!	!LO:TX:a:t=S&colon;	!	!LO:TX:a:t=problem:custos c#	!	!	!	!	!	!	!
8E\	5	8E\	Et	.	.	8g#\	Et	4b\	-o,	8g#\	.	8b\	.	.	.
8E\J	.	8E\	Spi-	.	.	8g#\	Spi-	.	.	8b\J	.	8gg#\J	.	.	.
!	!	!	!	!	!	!LO:LB:g=original	!	!LO:PB:g=original	!	!	!	!LO:LB:g=original	!	!	!
=28	=28	=28	=28	=28	=28	=28	=28	=28	=28	=28	=28	=28	=28	=28	=28
4BB/	7	16D#\LL	-ri-	2r	.	16f#\LL	-ri-	2r	.	2r	.	2r	.	1ryy	1ryy
.	.	16E\JJ	.	.	.	16g#\JJ	.	.	.	.	.	.	.	.	.
.	.	4F#\	-tu-	.	.	4a\	-tu-	.	.	.	.	.	.	.	.
16C#/LL	.	.	.	.	.	.	.	.	.	.	.	.	.	.	.
16D#/J	.	.	.	.	.	.	.	.	.	.	.	.	.	.	.
8E/J	.	8E\	-i	.	.	8g#\	-i	.	.	.	.	.	.	.	.
!LO:LB:g=original	!	!	!	!	!	!	!	!	!	!	!	!	!	!	!
4B\	4	8E\	San-	4r	.	8g#\	San-	4r	.	4r	.	4r	.	.	.
.	3	8D#\	-cto,	.	.	8f#\	-cto,	.	.	.	.	.	.	.	.
!	!	!LO:TX:a:t=problem:custos BB	!	!	!	!	!	!	!	!	!	!	!	!	!
!	!	!LO:LB:g=original	!	!	!	!	!	!	!	!	!	!	!	!	!
!LO:TX:a:t=T&colon;	!	!LO:TX:a:t=T&colon;	!	!	!	!LO:TX:a:t=T&colon;	!	!LO:TX:a:t=T&colon;	!	!	!LO:DY:a	!	!LO:DY:a	!	!
4BB/	.	16BB/	Si-	16d#\	Si-	16f#\	Si-	16b\	Si-	4d#/	f	4b\	f	.	.
.	.	16BB/	-cut	16d#\	-cut	16f#\	-cut	16b\	-cut	.	.	.	.	.	.
.	.	16BB/	e-	16d#\	e-	16f#\	e-	16b\	e-	.	.	.	.	.	.
.	.	16BB/	-rat	16d#\	-rat	16f#\	-rat	16b\	-rat	.	.	.	.	.	.
=29	=29	=29	=29	=29	=29	=29	=29	=29	=29	=29	=29	=29	=29	=29	=29
8C#/L	6|	8C#/	in	8e\	in	8f#\	in	8a#X\	in	8e/	.	16a#X\LL	.	1ryy	1ryy
.	.	.	.	.	.	.	.	.	.	.	.	16cc#\JJ	.	.	.
8BB/	.	8BB/	Prin-	8e\	Prin-	8f#\	prin-	8cc#\	prin-	4cc#\	.	4ee\	.	.	.
8AA#X/	.	16AA#X/	-ci-	16c#\	-ci-	16f#\	-ci-	16ee\	-ci-	.	.	.	.	.	.
.	.	16AA#/	-pi-	16c#\	-pi-	16f#\	-pi-	16ee\	-pi-	.	.	.	.	.	.
8BB/J	.	8BB/	-o	16B\	-o	16f#\	-o	16dd#\	-o,	8b\	.	8dd#\	.	.	.
!	!	!	!	!	!	!	!	!LO:TX:a:B:t=/	!	!	!	!	!	!	!
.	.	.	.	16d#\	et	16f#\	et	16dd#\	et	.	.	.	.	.	.
!	!	!	!	!	!	!	!	!	!	!	!	!LO:TX:a:t=problem:mixed beam	!	!	!
8r	.	2r	.	8d#\	nunc	8a\	nunc	8ff#\	nunc	8ff#\	.	16ff#\LL	.	.	.
.	.	.	.	.	.	.	.	.	.	.	.	16an/	.	.	.
8BB/L	7n	.	.	8d#\	et	8a\	et	8ff#\	et	4ff#\	.	16g#/	.	.	.
.	.	.	.	.	.	.	.	.	.	.	.	16a/JJ	.	.	.
8D#/	.	.	.	8d#\	Sem-	8a\	Sem-	8ff#\	Sem-	.	.	16a'/LL	.	.	.
.	.	.	.	.	.	.	.	.	.	.	.	16a'/	.	.	.
8BB/J	.	.	.	8d#\	-per.	8a\	-per,	8ff#\	-per,	8ff#\	.	(16g#/	.	.	.
.	.	.	.	.	.	.	.	.	.	.	.	16a/JJ)	.	.	.
=30	=30	=30	=30	=30	=30	=30	=30	=30	=30	=30	=30	=30	=30	=30	=30
!	!	!	!	!	!	!	!	!	!	!LO:TX:a:t=problem:mixed beam	!	!LO:TX:a:t=problem:mixed beam	!	!	!
4E\	.	2r	.	2r	.	8g#\	et	8ee\	et	8ee\L	.	8g#/L	.	1ryy	1ryy
.	.	.	.	.	.	8g#\	in	8ee\	in	8g#/J	.	8ee\J	.	.	.
4r	.	.	.	.	.	16f#\L	Sae-	16dd#\L	Sae-	16f#/LL	.	16dd#\LL	.	.	.
.	.	.	.	.	.	16g#\J	.	16ee\J	.	16g#/	.	16ee\	.	.	.
.	.	.	.	.	.	16a\	-cu-	16ff#\	-cu-	16a/	.	16ff#\	.	.	.
.	.	.	.	.	.	16f#\	-la	16dd#\	-la	16f#/JJ	.	16dd#\JJ	.	.	.
!	!	!	!	!	!	!	!	!	!	!LO:LB:g=original	!	!	!	!	!
!	!	!	!	!	!	!	!	!LO:TX:a:B:t=/	!	!LO:TX:a:t=problem:mixed beam	!	!	!	!	!
8r	.	8r	.	8r	.	8g#\	Sae-	8ee\	Sae-	8g#/L	.	8ee\L	.	.	.
8E\L	.	8E\L	a-	8e\	a-	8g#\	-cu-	8b\	-cu-	8gg#\	.	8bb\	.	.	.
8G#\	.	8G#\	.	4B\	.	8e\	-lo-	8b\	-lo-	8ee\	.	8bb\	.	.	.
8E\J	.	8E\J	.	.	.	8g#\	-rum	8b\	-rum	8gg#\J	.	8bb\J	.	.	.
!	!	!	!	!	!	!LO:TX:a:t=problem:custos a	!	!	!	!	!	!	!	!	!
!	!	!	!	!	!	!LO:LB:g=original	!	!	!	!	!	!	!	!	!
=31	=31	=31	=31	=31	=31	=31	=31	=31	=31	=31	=31	=31	=31	=31	=31
8D#\L	6 5	8D#\	.	4B\	-men	8a\	a-	8ff#\	a-	16.gg#\LL	.	16.bb\LL	.	1ryy	1ryy
.	.	.	.	.	.	.	.	.	.	32ff#\JK	.	32aa\JK	.	.	.
8E\J	.	8E\	-men	.	.	8g#\	-men	8ee\	-men	8ee\J	.	8gg#\J	.	.	.
8r	.	8r	.	8r	.	8r	.	8r	.	16e/LL	.	16g#\LL	.	.	.
.	.	.	.	.	.	.	.	.	.	16g#/	.	16ee\	.	.	.
8B\	.	8B\	{a-	8B\	{a-	8f#\	{a-	8dd#\	{a-	16a/	.	16f#\	.	.	.
.	.	.	.	.	.	.	.	.	.	16f#/JJ	.	16dd#\JJ	.	.	.
4E\	.	4E\	-men}	4B\	-men}	4g#\	-men}	4ee\	-men}	4g#/	.	4e\ 4b 4ee	.	.	.
4r	.	4r	.	4r	.	4r	.	4r	.	4r	.	4r	.	.	.
==	==	==	==	==	==	==	==	==	==	==	==	==	==	==	==
*-	*-	*-	*-	*-	*-	*-	*-	*-	*-	*-	*-	*-	*-	*-	*-
!!!system-decoration: [(g1)][(g2)][(g3)]{g4}
!!!RDF**kern: i = editorial accidental
!!!RDF**kern: >= above
!!!RDF**kern: <= below
!!!RDF**dynam: f=for:
!!!RDF**dynam: p=pi:
!!!AIN: 1 alto 3 empty 1 organ 1 tenor 2 violn 1 vox
!!!ENC: Anna Matuszewska
!!!END: 2020-07-14
